X:2286
T:Svingedans
T:(SvL Skåne 1248)
T:efter Jöns Andersson Ryberg
R:Svingedans
O:Ry, Lövestad, Skåne
B:Svenska Låtar Skåne
M:3/4
L:1/8
K:D
|: A>A FA d>f | (f{gf})>e ed/e/ f2 | A>A FA d>f | (f{gf})>e c2 d2 :|
[| de fg e2 | e>g fa d2 | de fg e2 | eg fa d2 |
A>A FA d>f | (f{gf})>e ed/e/ f2 | A>A FA d>f | (f{gf})>e c2 d2 :|
(:musicend:)
Upptecknad av Nils Andersson direkt efter spelmannen 1889 publicerad i Skånska Melodier. Spelanvisningar korrigerade efter Skånsk Melodier nr 93.
Variant till [[http://www.folkwiki.se/Musik/2050|SvL Skåne nr 1301]].

(:music:)
